src/images/Tools/Sketch.svg

<svg fill="none" height="50" viewBox="0 0 50 50" width="50" xmlns="http://www.w3.org/2000/svg" xmlns:xlink="http://www.w3.org/1999/xlink"><clipPath id="a"><path d="m0 0h50v50h-50z"/></clipPath><g clip-path="url(#a)"><path d="m0 0h50v50h-50z" fill="#fff"/><path d="m15.2331 10.9877 9.3428-.9877 9.3428.9877 7.2331 9.7098-16.5759 19.3025-16.5759-19.3025z" fill="#fdb300"/><path d="m14.7141 20.6973 9.8618 19.3025-16.5759-19.3025z" fill="#ea6c00"/><path d="m34.436 20.6973-9.8618 19.3025 16.5759-19.3025z" fill="#ea6c00"/><path d="m14.7148 20.6973h19.7237l-9.8619 19.3025z" fill="#fdad00"/><path d="m24.5766 10-9.3428.9877-.519 9.7098z" fill="#fdd231"/><path d="m24.5742 10 9.3428.9877.519 9.7098z" fill="#fdd231"/><path d="m41.1512 20.6976-7.2332-9.7098.5191 9.7098z" fill="#fdad00"/><path d="m8 20.6976 7.2331-9.7098-.519 9.7098z" fill="#fdad00"/><path d="m24.5766 10-9.8618 10.6975h19.7237z" fill="#feeeb7"/></g></svg>

<svg width="50" height="50" viewBox="0 0 50 50" fill="none" xmlns="http://www.w3.org/2000/svg">
<rect width="50" height="50" fill="white"/>
<path d="M15.2331 10.9877L24.5759 10L33.9187 10.9877L41.1518 20.6975L24.5759 40L8 20.6975L15.2331 10.9877Z" fill="#FDB300"/>
<path d="M14.7141 20.6975L24.5759 40L8 20.6975H14.7141Z" fill="#EA6C00"/>
<path d="M34.4363 20.6975L24.5745 40L41.1504 20.6975H34.4363Z" fill="#EA6C00"/>
<path d="M14.7129 20.6975H34.4366L24.5747 40L14.7129 20.6975Z" fill="#FDAD00"/>
<path d="M24.5747 10L15.2319 10.9877L14.7129 20.6975L24.5747 10Z" fill="#FDD231"/>
<path d="M24.5757 10L33.9185 10.9877L34.4375 20.6975L24.5757 10Z" fill="#FDD231"/>
<path d="M41.1504 20.6975L33.9172 10.9877L34.4363 20.6975H41.1504Z" fill="#FDAD00"/>
<path d="M8 20.6975L15.2331 10.9877L14.7141 20.6975H8Z" fill="#FDAD00"/>
<path d="M24.5747 10L14.7129 20.6975H34.4366L24.5747 10Z" fill="#FEEEB7"/>
</svg>
